src/icons/svgs/24/circle-exclamation.svg

<svg width="24" height="24" viewBox="0 0 24 24" fill="none" xmlns="http://www.w3.org/2000/svg">
<path d="M12 2C6.47656 2 2 6.47656 2 12C2 17.5234 6.47656 22 12 22C17.5234 22 22 17.5234 22 12C22 6.47656 17.5234 2 12 2ZM12 20.125C7.51953 20.125 3.875 16.4801 3.875 12C3.875 7.51992 7.51953 3.875 12 3.875C16.4805 3.875 20.125 7.51992 20.125 12C20.125 16.4801 16.4805 20.125 12 20.125ZM12 13.875C12.5176 13.875 12.9375 13.4551 12.9375 12.9375V7.9375C12.9375 7.42188 12.5195 7 12 7C11.4805 7 11.0625 7.42188 11.0625 7.9375V12.9375C11.0625 13.457 11.4844 13.875 12 13.875ZM12 15.168C11.3219 15.168 10.7719 15.718 10.7719 16.3961C10.7734 17.0742 11.3203 17.625 12 17.625C12.6797 17.625 13.2281 17.075 13.2281 16.3969C13.2266 15.7188 12.6797 15.168 12 15.168Z" fill="black"/>
</svg>

<svg width="24" height="24" viewBox="0 0 24 24" xmlns="http://www.w3.org/2000/svg">
    <path d="M12 2C6.477 2 2 6.477 2 12s4.477 10 10 10 10-4.477 10-10S17.523 2 12 2zm0 18.125c-4.48 0-8.125-3.645-8.125-8.125S7.52 3.875 12 3.875 20.125 7.52 20.125 12 16.48 20.125 12 20.125zm0-6.25c.518 0 .938-.42.938-.938v-5a.938.938 0 0 0-1.876 0v5c0 .52.422.938.938.938zm0 1.293a1.228 1.228 0 1 0 0 2.457 1.228 1.228 0 0 0 0-2.457z"/>
</svg>
